X: 5251
T: Broken Pledge, The
R: reel
M: 4/4
K: Edorian
|:edBA GE E/E/E|dBAG FD D/D/D|EFGA Be/e/ed|B/c/d Ad Begf|
edBA BE E/E/E|dBAG FD D/D/D|EFGA Be/e/ed|BBAF FEEd:|
|:edBA B2 ef|gfge fdBc|dBAF ABde|f/g/a df e2 ef|
edBA B2 ef|gfge fdBA|GFGA Be/e/ed|BBAF FEEd:|

